imgs/delivery_icon.svg

<svg width="92" height="92" viewBox="0 0 92 92" fill="none" xmlns="http://www.w3.org/2000/svg">
<circle cx="46" cy="46" r="46" fill="#E9E9EC"/>
<path d="M33.7563 57.3559L54.3365 65.9555V45.0078L33.7563 37.3638V57.3559Z" fill="#0B7572"/>
<path d="M70.1389 46.404L64.4059 48.462V42.6555L56.8353 45.3015V65.9552L78.1505 57.3556V37.731L70.1389 40.5975V46.404ZM63.3034 61.2511L62.4214 61.6186V56.9881L63.3034 56.6941V61.2511ZM64.8469 60.6631L63.9649 61.0306V56.4001L64.8469 56.1061V60.6631ZM67.9339 59.4136L67.0519 59.7076V55.1506L67.9339 54.8566V59.4136ZM69.4774 58.7521L68.5954 59.1196V54.6361L69.4774 54.3421V58.7521ZM72.5644 53.0926L73.4465 52.7986V57.1351L72.5644 57.5026V53.0926ZM70.8004 53.7541L71.6824 53.4601V57.8701L70.8004 58.2376V53.7541Z" fill="#0B7572"/>
<path d="M70.1391 37.7311L78.1507 34.7911L55.9535 27L48.824 29.499L70.1391 37.5841V37.7311Z" fill="#0B7572"/>
<path d="M42.5029 31.7041L33.7563 34.7911L55.9535 42.8762L64.3326 39.8627L42.5029 31.7041Z" fill="#0B7572"/>
<path d="M12 55.4446H30.2281V51.7695H13.6905L12 55.4446Z" fill="#0B7572"/>
<path d="M15.0137 48.9765H30.2283V45.3015H16.7042L15.0137 48.9765Z" fill="#0B7572"/>
<path d="M18.0271 42.2883V42.5823H30.2282V38.9072H19.6441L18.0271 42.2883Z" fill="#0B7572"/>
</svg>

<svg xmlns="http://www.w3.org/2000/svg" width="92" height="92" fill="none"><circle cx="46" cy="46" r="46" fill="#E9E9EC"/><path fill="#0B7572" d="m33.756 57.356 20.58 8.6V45.008l-20.58-7.644v19.992ZM70.139 46.404l-5.733 2.058v-5.806l-7.57 2.645v20.654l21.314-8.6V37.732l-8.011 2.866v5.807Zm-6.836 14.847-.882.368v-4.63l.882-.295v4.557Zm1.544-.588-.882.368V56.4l.882-.295v4.557Zm3.087-1.25-.882.295V55.15l.882-.294v4.557Zm1.543-.66-.882.367v-4.484l.882-.294v4.41Zm3.087-5.66.883-.294v4.336l-.883.368v-4.41Zm-1.764.661.882-.294v4.41l-.882.368v-4.484ZM70.14 37.731l8.01-2.94L55.954 27l-7.129 2.499 21.315 8.085v.147ZM42.503 31.704l-8.747 3.087 22.197 8.085 8.38-3.013-21.83-8.159ZM12 55.445h18.228V51.77H13.69L12 55.444ZM15.014 48.977h15.214v-3.675H16.704l-1.69 3.675ZM18.027 42.288v.294h12.201v-3.675H19.644l-1.617 3.381Z"/></svg>
